lib/brands/icons/cake-php.svg

<svg xmlns="http://www.w3.org/2000/svg" fill="none" aria-hidden="true" viewBox="0 0 48 48"><g id="cake-php-Icon"><path id="Vector" fill="#D33C44" fill-rule="evenodd" d="M4 27.1236C4 30.5699 12.9521 33.3671 23.9968 33.3671V39.6081C12.9521 39.6081 4 36.8134 4 33.3671V27.1236ZM44 27.1236V33.3658C44 34.8372 42.3642 36.1871 39.6403 37.2549L23.9956 33.3658V27.1236L39.6403 31.0114C42.3642 29.9449 44.0013 28.595 44 27.1236ZM23.9968 8.39194C35.0428 8.39194 44 11.1917 44 14.6354V20.8827C44 22.349 42.3642 23.704 39.6416 24.7667L23.9968 20.8827V27.1236C12.9521 27.1236 4 24.3277 4 20.8827V14.6354C4 11.1917 12.9521 8.39194 23.9968 8.39194Z" clip-rule="evenodd"/></g></svg>

<svg xmlns="http://www.w3.org/2000/svg" fill="none" aria-hidden="true" viewBox="0 0 48 48"><path fill="#D33C44" fill-rule="evenodd" d="M4 27.124c0 3.446 8.952 6.243 19.997 6.243v6.241C12.952 39.608 4 36.813 4 33.368v-6.244Zm40 0v6.242c0 1.471-1.636 2.821-4.36 3.889l-15.644-3.89v-6.241L39.64 31.01c2.724-1.066 4.361-2.416 4.36-3.887ZM23.997 8.392c11.046 0 20.003 2.8 20.003 6.243v6.248c0 1.466-1.636 2.821-4.358 3.884l-15.645-3.884v6.24C12.952 27.124 4 24.329 4 20.884v-6.248c0-3.443 8.952-6.243 19.997-6.243Z" clip-rule="evenodd"/></svg>
